archdroid-icon-theme/Archdroid-Amber/apps/scalable/preferences-desktop-remote-desktop.svg

<svg xmlns="http://www.w3.org/2000/svg" fill="#FFC107" viewBox="0 0 48 48"><path d="m30 19h-12c-1.11 0-2 .9-2 2v24c0 1.1.89 2 2 2h12c1.11 0 2-.9 2-2v-24c0-1.1-.89-2-2-2m-6 12c-2.21 0-4-1.79-4-4 0-2.21 1.79-4 4-4 2.21 0 4 1.79 4 4 0 2.21-1.79 4-4 4m-9.9-17.9l2.83 2.83c1.81-1.81 4.31-2.93 7.07-2.93 2.76 0 5.26 1.12 7.07 2.93l2.83-2.83c-2.53-2.53-6.03-4.1-9.9-4.1-3.87 0-7.37 1.57-9.9 4.1m9.9-12.1c-6.07 0-11.57 2.46-15.56 6.44l2.83 2.83c3.26-3.26 7.76-5.27 12.73-5.27 4.97 0 9.47 2.01 12.73 5.27l2.83-2.83c-3.99-3.98-9.49-6.44-15.56-6.44"/></svg>

<?xml version="1.0" encoding="UTF-8" standalone="no"?>
<svg
   xmlns:dc="http://purl.org/dc/elements/1.1/"
   xmlns:cc="http://creativecommons.org/ns#"
   xmlns:rdf="http://www.w3.org/1999/02/22-rdf-syntax-ns#"
   xmlns:svg="http://www.w3.org/2000/svg"
   xmlns="http://www.w3.org/2000/svg"
   xmlns:sodipodi="http://sodipodi.sourceforge.net/DTD/sodipodi-0.dtd"
   xmlns:inkscape="http://www.inkscape.org/namespaces/inkscape"
   fill="#FFC107"
   width="48"
   height="48"
   viewBox="0 0 48 48"
   id="svg2"
   version="1.1"
   inkscape:version="0.91 r13725"
   sodipodi:docname="preferences-desktop-remote-desktop.svg">
  <metadata
     id="metadata10">
    <rdf:RDF>
      <cc:Work
         rdf:about="">
        <dc:format>image/svg+xml</dc:format>
        <dc:type
           rdf:resource="http://purl.org/dc/dcmitype/StillImage" />
      </cc:Work>
    </rdf:RDF>
  </metadata>
  <defs
     id="defs8" />
  <sodipodi:namedview
     pagecolor="#ffffff"
     bordercolor="#666666"
     borderopacity="1"
     objecttolerance="10"
     gridtolerance="10"
     guidetolerance="10"
     inkscape:pageopacity="0"
     inkscape:pageshadow="2"
     inkscape:window-width="640"
     inkscape:window-height="480"
     id="namedview6"
     showgrid="false"
     inkscape:zoom="6.549153645833334"
     inkscape:cx="23.99999999999999"
     inkscape:cy="24"
     inkscape:window-x="0"
     inkscape:window-y="30"
     inkscape:window-maximized="0"
     inkscape:current-layer="svg2" />
  <path
     d="m 30,19 -12,0 c -1.11,0 -2,0.9 -2,2 l 0,24 c 0,1.1 0.89,2 2,2 l 12,0 c 1.11,0 2,-0.9 2,-2 l 0,-24 c 0,-1.1 -0.89,-2 -2,-2 z m -6,12 c -2.21,0 -4,-1.79 -4,-4 0,-2.21 1.79,-4 4,-4 2.21,0 4,1.79 4,4 0,2.21 -1.79,4 -4,4 z m -9.9,-17.9 2.83,2.83 C 18.74,14.12 21.24,13 24,13 c 2.76,0 5.26,1.12 7.07,2.93 L 33.9,13.1 C 31.37,10.57 27.87,9 24,9 20.13,9 16.63,10.57 14.1,13.1 Z M 24,1 c -6.07,0 -11.57,2.46 -15.56,6.440000000000002 L 11.27,10.27 C 14.53,7.01 19.03,5 24,5 c 4.97,0 9.47,2.01 12.73000000000001,5.27 L 39.56,7.44 C 35.57,3.46 30.07,1 24,1 Z"
     id="path4"
     inkscape:connector-curvature="0" />
</svg>
